Yaru++/apps/scalable/synapse.svg

<svg height="256" width="256" xmlns="http://www.w3.org/2000/svg" xmlns:xlink="http://www.w3.org/1999/xlink">
  <filter id="filter11191" color-interpolation-filters="sRGB" height="1.024" width="1.024" x="-.01" y="-.01">
    <feGaussianBlur stdDeviation="1.12"/>
  </filter>
  <filter id="filter11210" color-interpolation-filters="sRGB" height="1.096" width="1.096" x="-.05" y="-.05">
    <feGaussianBlur stdDeviation="4.48"/>
  </filter>
  <circle cx="128.752" cy="127.248" filter="url(#filter11210)" opacity=".1" r="112"/>
  <circle cx="128.752" cy="125.248" filter="url(#filter11191)" opacity=".1" r="112"/>
  <circle cx="128.752" cy="123.248" opacity=".1" r="114"/>
  <circle cx="128.752" cy="123.106" fill="#2daaaa" r="112"/>
  <g fill="#fff">
    <path d="m128.75195 71.646484a51.459421 51.459421 0 0 0 -51.458981 51.458986 51.459421 51.459421 0 0 0 .851562 9.08203h82.603519a33.297268 33.297268 0 0 1 -31.9961 24.21484 33.297268 33.297268 0 0 1 -25.64648-12.10742h-21.189454a51.459421 51.459421 0 0 0 46.835934 30.26953 51.459421 51.459421 0 0 0 51.45899-51.45898 51.459421 51.459421 0 0 0 -.85156-9.08008h-82.603521a33.297268 33.297268 0 0 1 31.996091-24.216796 33.297268 33.297268 0 0 1 25.64649 12.107426h21.18945a51.459421 51.459421 0 0 0 -46.83594-30.269536z"/>
    <path d="m137.83398 234.68555v-24.28125a87.783715 87.783715 0 0 0 77.37696-72.16407h-18.55274a69.621566 69.621566 0 0 1 -67.90625 54.48633 69.621566 69.621566 0 0 1 -67.859372-54.48633h-18.517578a87.783715 87.783715 0 0 0 77.29688 72.14063v24.27148a112 112 0 0 0 9.08007.45313 112 112 0 0 0 7.92188-.2793 112 112 0 0 0 1.16015-.14062z"/>
    <path d="m128.75195 11.105469a112 112 0 0 0 -7.92187.28125 112 112 0 0 0 -1.1582.140625v24.279297a87.783715 87.783715 0 0 0 -77.378911 72.164059h18.552734a69.621566 69.621566 0 0 1 67.906247-54.486325 69.621566 69.621566 0 0 1 67.85938 54.486325h18.51758a87.783715 87.783715 0 0 0 -77.29493-72.140622v-24.269531a112 112 0 0 0 -9.08203-.455078z"/>
  </g>
  <path d="m128.752 235.248a112 112 0 0 1 -112.000001-112 112 112 0 0 1 .04102-1.16992 112 112 0 0 0 111.958981 111.16992 112 112 0 0 0 111.95898-110.83008 112 112 0 0 1 .041.83008 112 112 0 0 1 -112 112z" opacity=".2"/>
  <path d="m128.752 11.248006a112 112 0 0 0 -112.000001 111.999994 112 112 0 0 0 .04102 1.16992 112 112 0 0 1 111.958981-111.169914 112 112 0 0 1 111.95898 110.830074 112 112 0 0 0 .041-.83008 112 112 0 0 0 -112-111.999994z" fill="#fff" opacity=".3"/>
  <path d="m128.75195 51.484379a69.621566 69.621566 0 0 0 -67.90625 54.486331h-18.10547a87.783715 87.783715 0 0 0 -.44726 2h18.55273a69.621566 69.621566 0 0 1 67.90625-54.486331 69.621566 69.621566 0 0 1 67.85938 54.486331h18.51758a87.783715 87.783715 0 0 0 -.45508-2h-18.0625a69.621566 69.621566 0 0 0 -67.85938-54.486331zm0 36.324219a33.297268 33.297268 0 0 0 -31.99609 24.216792h.67578a33.297268 33.297268 0 0 1 31.32031-22.216792 33.297268 33.297268 0 0 1 25.64649 12.107422h21.18945a51.459421 51.459421 0 0 0 -1.02734-2.000001h-20.16211a33.297268 33.297268 0 0 0 -25.64649-12.107421zm-51.41601 34.082032a51.459421 51.459421 0 0 0 -.04297 1.21484 51.459421 51.459421 0 0 0 .85156 9.08203h81.92773a33.297268 33.297268 0 0 0 .67579-2h-82.60352a51.459421 51.459421 0 0 1 -.80859-8.29687zm102.83203.42969a51.459421 51.459421 0 0 1 -51.41602 50.24414 51.459421 51.459421 0 0 1 -45.80859-28.26953h-1.02734a51.459421 51.459421 0 0 0 46.83593 30.26953 51.459421 51.459421 0 0 0 51.45899-51.45899 51.459421 51.459421 0 0 0 -.043-.78515zm-137.79297 15.91992a87.783715 87.783715 0 0 0 77.29687 72.14062v-2a87.783715 87.783715 0 0 1 -76.84179-70.14062zm172.38867 0a87.783715 87.783715 0 0 1 -76.92969 70.16406v2a87.783715 87.783715 0 0 0 77.37696-72.16406zm-95.0918 94.41211v2a112 112 0 0 0 9.08008.45312 112 112 0 0 0 7.92188-.27929 112 112 0 0 0 1.16015-.14063v-2a112 112 0 0 1 -1.16015.14063 112 112 0 0 1 -7.92188.27929 112 112 0 0 1 -9.08008-.45312z" opacity=".2"/>
</svg>

<svg xmlns="http://www.w3.org/2000/svg" xmlns:osb="http://www.openswatchbook.org/uri/2009/osb" xmlns:xlink="http://www.w3.org/1999/xlink" width="256" height="256" version="1.1">
 <defs>
  <linearGradient id="linearGradient5606" osb:paint="solid">
   <stop id="stop5608" offset="0" style="stop-color:#000000"/>
  </linearGradient>
  <linearGradient id="linearGradient4526" osb:paint="solid">
   <stop id="stop4528" offset="0" style="stop-color:#ffffff"/>
  </linearGradient>
  <linearGradient id="linearGradient3600-4" osb:paint="gradient">
   <stop id="stop3602-7" offset="0" style="stop-color:#f4f4f4"/>
   <stop id="stop3604-6" offset="1" style="stop-color:#dbdbdb"/>
  </linearGradient>
  <clipPath id="clipPath1094" clipPathUnits="userSpaceOnUse">
   <path style="fill:url(#linearGradient1098)" d="M 188.96875,43.999998 C 261.6174,43.999998 272,54.356613 272,126.9375 v 58.125 C 272,257.64309 261.6174,268 188.96875,268 h -73.9375 C 42.3826,268 32,257.64309 32,185.0625 v -58.125 C 32,54.356613 42.3826,43.999998 115.03125,43.999998 Z"/>
  </clipPath>
  <clipPath id="clipPath1100" clipPathUnits="userSpaceOnUse">
   <path style="fill:url(#linearGradient1104)" d="M 188.96875,44 C 261.6174,44 272,54.356615 272,126.9375 v 58.125 C 272,257.64309 261.6174,268 188.96875,268 h -73.9375 C 42.3826,268 32,257.64309 32,185.0625 v -58.125 C 32,54.356615 42.3826,44 115.03125,44 Z"/>
  </clipPath>
  <filter style="color-interpolation-filters:sRGB" id="filter11191" width="1.024" height="1.024" x="-.01" y="-.01">
   <feGaussianBlur id="feGaussianBlur11193" stdDeviation="1.12"/>
  </filter>
  <filter style="color-interpolation-filters:sRGB" id="filter11210" width="1.096" height="1.096" x="-.05" y="-.05">
   <feGaussianBlur id="feGaussianBlur11212" stdDeviation="4.48"/>
  </filter>
  <linearGradient id="linearGradient1490" x1="33.076" x2="91.624" y1="210.425" y2="262.805" gradientTransform="matrix(2.1947377,0,0,2.1923444,-10.836741,-394.1216)" gradientUnits="userSpaceOnUse" xlink:href="#linearGradient1488"/>
  <linearGradient id="linearGradient1488">
   <stop style="stop-color:#ff8b00" id="stop1484" offset="0"/>
   <stop style="stop-color:#ffda2c" id="stop1486" offset="1"/>
  </linearGradient>
  <filter id="filter4460" width="1.026" height="1.023" x="-.01" y="-.01" style="color-interpolation-filters:sRGB">
   <feGaussianBlur id="feGaussianBlur7" stdDeviation="1.133"/>
  </filter>
  <linearGradient id="linearGradient4413" x1="256" x2="256" y1="138" y2="375" gradientTransform="matrix(0.43877818,0,0,0.43877818,20.296981,11.211784)" gradientUnits="userSpaceOnUse">
   <stop style="stop-color:#000000;stop-opacity:0" id="stop10" offset="0"/>
   <stop style="stop-color:#000000" id="stop12" offset=".505"/>
   <stop style="stop-color:#000000;stop-opacity:0" id="stop14" offset="1"/>
  </linearGradient>
  <linearGradient id="linearGradient950">
   <stop id="stop946" offset="0" style="stop-color:#9a9996"/>
   <stop id="stop948" offset="1" style="stop-color:#77767b"/>
  </linearGradient>
  <linearGradient id="linearGradient1001" x1="1660.857" x2="1662.99" y1="806.297" y2="812.882" gradientTransform="matrix(1.8293937,-0.81599442,0.81599442,1.8293937,-3645.9624,100.02949)" gradientUnits="userSpaceOnUse" xlink:href="#linearGradient950"/>
  <clipPath id="clipPath5154" clipPathUnits="userSpaceOnUse">
   <circle cx="128" cy="924.362" r="109.647" style="fill:url(#radialGradient5158)"/>
  </clipPath>
  <clipPath id="clipPath977" clipPathUnits="userSpaceOnUse">
   <circle cx="128" cy="924.362" r="109.647" style="fill:url(#radialGradient5158)"/>
  </clipPath>
  <clipPath id="clipPath4688" clipPathUnits="userSpaceOnUse">
   <path d="m 106.42383,889.60156 c -2.2448,-0.0524 -4.09304,1.75264 -4.09375,3.99805 v 32.64453 32.64453 c -4e-5,3.07923 3.33305,5.004 6,3.46485 l 28.26953,-16.32227 28.27148,-16.32227 c 2.66559,-1.54001 2.66559,-5.38772 0,-6.92773 l -28.27148,-16.32227 -28.26953,-16.32226 c -0.58054,-0.3353 -1.23603,-0.51932 -1.90625,-0.53516 z" style="fill:url(#radialGradient4692);stroke:#a7003f;stroke-linecap:round;stroke-linejoin:round"/>
  </clipPath>
  <clipPath id="clipPath4564" clipPathUnits="userSpaceOnUse">
   <circle cx="128" cy="924.362" r="109.647" style="fill:url(#radialGradient4568)"/>
  </clipPath>
  <clipPath id="clipPath6215" clipPathUnits="userSpaceOnUse">
   <path d="m 105.17325,806.18572 c -3.06859,0.56361 -6.11393,1.24721 -9.129005,2.04923 -3.838255,1.06506 -7.62084,2.32142 -11.333578,3.76438 -3.712189,1.44307 -7.34989,3.07087 -10.899472,4.87732 -3.549153,1.80656 -7.005749,3.78947 -10.35684,5.94129 -3.351877,2.15253 -6.593991,4.47137 -9.714191,6.94783 -3.119992,2.47544 -6.114241,5.10535 -8.971529,7.87988 -0.367219,0.38909 -0.731819,0.78065 -1.093777,1.17464 2.60205,17.85956 16.832359,40.03752 30.863064,55.74236 -4.76734,8.84435 -7.265993,18.73329 -7.272057,28.78068 0.02104,2.87431 0.246096,5.7435 0.673482,8.58593 -20.257302,-9.18513 -43.077023,-26.53494 -52.798465,-47.36396 -0.440667,1.15171 -0.863474,2.31018 -1.268271,3.47498 -1.176789,3.80495 -2.162562,7.66637 -2.953625,11.56979 -0.79154,3.90311 -1.3874065,7.84335 -1.7853678,11.80598 -0.39733,3.96334 -0.5961891,7.94407 -0.5958321,11.92728 -4.394e-4,2.81936 0.098928,5.63785 0.2979155,8.45018 0.282275,3.97319 0.763088,7.92978 1.4406374,11.85493 0.625626,3.51826 1.408798,7.00668 2.347153,10.45473 16.778133,6.68355 43.114514,5.45001 63.748015,1.14301 6.818545,11.02763 16.987182,19.58379 29.018153,24.41667 -18.071844,12.93645 -44.490188,24.02095 -67.37308,22.03245 1.384097,1.665 2.813203,3.2921 4.285735,4.8794 2.774977,2.8571 5.691103,5.5737 8.737453,8.1395 3.046107,2.5658 6.218619,4.9777 9.505651,7.2266 3.287242,2.2488 6.684891,4.3319 10.180217,6.2413 3.495379,1.9096 7.084075,3.6433 10.752641,5.1944 3.66896,1.5509 7.413193,2.9174 11.218668,4.0942 1.438565,0.3959 2.884421,0.7648 4.336807,1.1066 14.138748,-11.1844 26.206378,-34.5828 32.780368,-54.56406 12.95816,-0.38251 25.45395,-4.90132 35.65955,-12.89544 2.15922,22.12638 -1.46693,50.5581 -14.64692,69.3832 3.06859,-0.5636 6.11393,-1.2473 9.129,-2.0493 3.83826,-1.0651 7.62084,-2.3214 11.33358,-3.7644 3.71219,-1.4431 7.34989,-3.0709 10.89947,-4.8773 3.54915,-1.8066 7.00575,-3.7895 10.35684,-5.9413 3.35188,-2.1525 6.59399,-4.4714 9.71419,-6.9478 3.11999,-2.4754 6.11424,-5.1054 8.97153,-7.8799 0.36722,-0.3891 0.73182,-0.7806 1.09378,-1.1746 -2.60204,-17.85957 -16.83236,-40.03755 -30.86307,-55.74238 4.76735,-8.84435 7.266,-18.7333 7.27207,-28.78069 -0.021,-2.8743 -0.24611,-5.74349 -0.6735,-8.58592 20.25731,9.18513 43.07704,26.53494 52.79848,47.36396 0.44067,-1.15171 0.86347,-2.31018 1.26827,-3.47499 1.17679,-3.80495 2.16256,-7.66636 2.95362,-11.56978 0.79154,-3.90311 1.38741,-7.84335 1.78537,-11.80598 0.39733,-3.96334 0.59619,-7.94408 0.59583,-11.92729 4.4e-4,-2.81936 -0.0989,-5.63784 -0.29791,-8.45017 -0.28228,-3.97319 -0.76309,-7.92978 -1.44064,-11.85493 -0.62776,-3.53416 -1.41449,-7.03823 -2.35779,-10.50154 -20.56165,-7.32804 -45.89823,-4.79548 -63.74906,-1.11372 -6.81835,-11.01918 -16.98234,-19.56874 -29.00647,-24.39915 18.07184,-12.93645 44.49019,-24.02091 67.37307,-22.03241 -1.38409,-1.66502 -2.8132,-3.2921 -4.28573,-4.87944 -2.77498,-2.85712 -5.6911,-5.57368 -8.73745,-8.13949 -3.04611,-2.56581 -6.21862,-4.97769 -9.50565,-7.22659 -3.28724,-2.24885 -6.68489,-4.3319 -10.18022,-6.24135 -3.49538,-1.90963 -7.08407,-3.64325 -10.75264,-5.19438 -3.66896,-1.55092 -7.41319,-2.91736 -11.21867,-4.09421 -1.42662,-0.39262 -2.86041,-0.75869 -4.30063,-1.09804 -14.14688,11.18369 -26.2293,34.57475 -32.8107,54.55552 -12.96018,0.38127 -25.4582,4.90015 -35.665394,12.89544 -2.15922,-22.12637 1.466931,-50.55807 14.646924,-69.38315 z" style="fill:url(#radialGradient6219)"/>
  </clipPath>
  <clipPath id="clipPath5154-3" clipPathUnits="userSpaceOnUse">
   <circle cx="128" cy="924.362" r="109.647" style="fill:url(#radialGradient5158)"/>
  </clipPath>
  <clipPath id="clipPath977-5" clipPathUnits="userSpaceOnUse">
   <circle cx="128" cy="924.362" r="109.647" style="fill:url(#radialGradient5158)"/>
  </clipPath>
  <clipPath id="clipPath4688-6" clipPathUnits="userSpaceOnUse">
   <path d="m 106.42383,889.60156 c -2.2448,-0.0524 -4.09304,1.75264 -4.09375,3.99805 v 32.64453 32.64453 c -4e-5,3.07923 3.33305,5.004 6,3.46485 l 28.26953,-16.32227 28.27148,-16.32227 c 2.66559,-1.54001 2.66559,-5.38772 0,-6.92773 l -28.27148,-16.32227 -28.26953,-16.32226 c -0.58054,-0.3353 -1.23603,-0.51932 -1.90625,-0.53516 z" style="fill:url(#radialGradient4692);stroke:#a7003f;stroke-linecap:round;stroke-linejoin:round"/>
  </clipPath>
  <clipPath id="clipPath4564-2" clipPathUnits="userSpaceOnUse">
   <circle cx="128" cy="924.362" r="109.647" style="fill:url(#radialGradient4568)"/>
  </clipPath>
  <clipPath id="clipPath6215-9" clipPathUnits="userSpaceOnUse">
   <path d="m 105.17325,806.18572 c -3.06859,0.56361 -6.11393,1.24721 -9.129005,2.04923 -3.838255,1.06506 -7.62084,2.32142 -11.333578,3.76438 -3.712189,1.44307 -7.34989,3.07087 -10.899472,4.87732 -3.549153,1.80656 -7.005749,3.78947 -10.35684,5.94129 -3.351877,2.15253 -6.593991,4.47137 -9.714191,6.94783 -3.119992,2.47544 -6.114241,5.10535 -8.971529,7.87988 -0.367219,0.38909 -0.731819,0.78065 -1.093777,1.17464 2.60205,17.85956 16.832359,40.03752 30.863064,55.74236 -4.76734,8.84435 -7.265993,18.73329 -7.272057,28.78068 0.02104,2.87431 0.246096,5.7435 0.673482,8.58593 -20.257302,-9.18513 -43.077023,-26.53494 -52.798465,-47.36396 -0.440667,1.15171 -0.863474,2.31018 -1.268271,3.47498 -1.176789,3.80495 -2.162562,7.66637 -2.953625,11.56979 -0.79154,3.90311 -1.3874065,7.84335 -1.7853678,11.80598 -0.39733,3.96334 -0.5961891,7.94407 -0.5958321,11.92728 -4.394e-4,2.81936 0.098928,5.63785 0.2979155,8.45018 0.282275,3.97319 0.763088,7.92978 1.4406374,11.85493 0.625626,3.51826 1.408798,7.00668 2.347153,10.45473 16.778133,6.68355 43.114514,5.45001 63.748015,1.14301 6.818545,11.02763 16.987182,19.58379 29.018153,24.41667 -18.071844,12.93645 -44.490188,24.02095 -67.37308,22.03245 1.384097,1.665 2.813203,3.2921 4.285735,4.8794 2.774977,2.8571 5.691103,5.5737 8.737453,8.1395 3.046107,2.5658 6.218619,4.9777 9.505651,7.2266 3.287242,2.2488 6.684891,4.3319 10.180217,6.2413 3.495379,1.9096 7.084075,3.6433 10.752641,5.1944 3.66896,1.5509 7.413193,2.9174 11.218668,4.0942 1.438565,0.3959 2.884421,0.7648 4.336807,1.1066 14.138748,-11.1844 26.206378,-34.5828 32.780368,-54.56406 12.95816,-0.38251 25.45395,-4.90132 35.65955,-12.89544 2.15922,22.12638 -1.46693,50.5581 -14.64692,69.3832 3.06859,-0.5636 6.11393,-1.2473 9.129,-2.0493 3.83826,-1.0651 7.62084,-2.3214 11.33358,-3.7644 3.71219,-1.4431 7.34989,-3.0709 10.89947,-4.8773 3.54915,-1.8066 7.00575,-3.7895 10.35684,-5.9413 3.35188,-2.1525 6.59399,-4.4714 9.71419,-6.9478 3.11999,-2.4754 6.11424,-5.1054 8.97153,-7.8799 0.36722,-0.3891 0.73182,-0.7806 1.09378,-1.1746 -2.60204,-17.85957 -16.83236,-40.03755 -30.86307,-55.74238 4.76735,-8.84435 7.266,-18.7333 7.27207,-28.78069 -0.021,-2.8743 -0.24611,-5.74349 -0.6735,-8.58592 20.25731,9.18513 43.07704,26.53494 52.79848,47.36396 0.44067,-1.15171 0.86347,-2.31018 1.26827,-3.47499 1.17679,-3.80495 2.16256,-7.66636 2.95362,-11.56978 0.79154,-3.90311 1.38741,-7.84335 1.78537,-11.80598 0.39733,-3.96334 0.59619,-7.94408 0.59583,-11.92729 4.4e-4,-2.81936 -0.0989,-5.63784 -0.29791,-8.45017 -0.28228,-3.97319 -0.76309,-7.92978 -1.44064,-11.85493 -0.62776,-3.53416 -1.41449,-7.03823 -2.35779,-10.50154 -20.56165,-7.32804 -45.89823,-4.79548 -63.74906,-1.11372 -6.81835,-11.01918 -16.98234,-19.56874 -29.00647,-24.39915 18.07184,-12.93645 44.49019,-24.02091 67.37307,-22.03241 -1.38409,-1.66502 -2.8132,-3.2921 -4.28573,-4.87944 -2.77498,-2.85712 -5.6911,-5.57368 -8.73745,-8.13949 -3.04611,-2.56581 -6.21862,-4.97769 -9.50565,-7.22659 -3.28724,-2.24885 -6.68489,-4.3319 -10.18022,-6.24135 -3.49538,-1.90963 -7.08407,-3.64325 -10.75264,-5.19438 -3.66896,-1.55092 -7.41319,-2.91736 -11.21867,-4.09421 -1.42662,-0.39262 -2.86041,-0.75869 -4.30063,-1.09804 -14.14688,11.18369 -26.2293,34.57475 -32.8107,54.55552 -12.96018,0.38127 -25.4582,4.90015 -35.665394,12.89544 -2.15922,-22.12637 1.466931,-50.55807 14.646924,-69.38315 z" style="fill:url(#radialGradient6219)"/>
  </clipPath>
  <clipPath id="clipPath5154-9" clipPathUnits="userSpaceOnUse">
   <circle cx="128" cy="924.362" r="109.647" style="fill:url(#radialGradient5158)"/>
  </clipPath>
  <clipPath id="clipPath977-3" clipPathUnits="userSpaceOnUse">
   <circle cx="128" cy="924.362" r="109.647" style="fill:url(#radialGradient5158)"/>
  </clipPath>
  <clipPath id="clipPath4688-60" clipPathUnits="userSpaceOnUse">
   <path d="m 106.42383,889.60156 c -2.2448,-0.0524 -4.09304,1.75264 -4.09375,3.99805 v 32.64453 32.64453 c -4e-5,3.07923 3.33305,5.004 6,3.46485 l 28.26953,-16.32227 28.27148,-16.32227 c 2.66559,-1.54001 2.66559,-5.38772 0,-6.92773 l -28.27148,-16.32227 -28.26953,-16.32226 c -0.58054,-0.3353 -1.23603,-0.51932 -1.90625,-0.53516 z" style="fill:url(#radialGradient4692);stroke:#a7003f;stroke-linecap:round;stroke-linejoin:round"/>
  </clipPath>
  <clipPath id="clipPath4564-6" clipPathUnits="userSpaceOnUse">
   <circle cx="128" cy="924.362" r="109.647" style="fill:url(#radialGradient4568)"/>
  </clipPath>
  <clipPath id="clipPath6215-2" clipPathUnits="userSpaceOnUse">
   <path d="m 105.17325,806.18572 c -3.06859,0.56361 -6.11393,1.24721 -9.129005,2.04923 -3.838255,1.06506 -7.62084,2.32142 -11.333578,3.76438 -3.712189,1.44307 -7.34989,3.07087 -10.899472,4.87732 -3.549153,1.80656 -7.005749,3.78947 -10.35684,5.94129 -3.351877,2.15253 -6.593991,4.47137 -9.714191,6.94783 -3.119992,2.47544 -6.114241,5.10535 -8.971529,7.87988 -0.367219,0.38909 -0.731819,0.78065 -1.093777,1.17464 2.60205,17.85956 16.832359,40.03752 30.863064,55.74236 -4.76734,8.84435 -7.265993,18.73329 -7.272057,28.78068 0.02104,2.87431 0.246096,5.7435 0.673482,8.58593 -20.257302,-9.18513 -43.077023,-26.53494 -52.798465,-47.36396 -0.440667,1.15171 -0.863474,2.31018 -1.268271,3.47498 -1.176789,3.80495 -2.162562,7.66637 -2.953625,11.56979 -0.79154,3.90311 -1.3874065,7.84335 -1.7853678,11.80598 -0.39733,3.96334 -0.5961891,7.94407 -0.5958321,11.92728 -4.394e-4,2.81936 0.098928,5.63785 0.2979155,8.45018 0.282275,3.97319 0.763088,7.92978 1.4406374,11.85493 0.625626,3.51826 1.408798,7.00668 2.347153,10.45473 16.778133,6.68355 43.114514,5.45001 63.748015,1.14301 6.818545,11.02763 16.987182,19.58379 29.018153,24.41667 -18.071844,12.93645 -44.490188,24.02095 -67.37308,22.03245 1.384097,1.665 2.813203,3.2921 4.285735,4.8794 2.774977,2.8571 5.691103,5.5737 8.737453,8.1395 3.046107,2.5658 6.218619,4.9777 9.505651,7.2266 3.287242,2.2488 6.684891,4.3319 10.180217,6.2413 3.495379,1.9096 7.084075,3.6433 10.752641,5.1944 3.66896,1.5509 7.413193,2.9174 11.218668,4.0942 1.438565,0.3959 2.884421,0.7648 4.336807,1.1066 14.138748,-11.1844 26.206378,-34.5828 32.780368,-54.56406 12.95816,-0.38251 25.45395,-4.90132 35.65955,-12.89544 2.15922,22.12638 -1.46693,50.5581 -14.64692,69.3832 3.06859,-0.5636 6.11393,-1.2473 9.129,-2.0493 3.83826,-1.0651 7.62084,-2.3214 11.33358,-3.7644 3.71219,-1.4431 7.34989,-3.0709 10.89947,-4.8773 3.54915,-1.8066 7.00575,-3.7895 10.35684,-5.9413 3.35188,-2.1525 6.59399,-4.4714 9.71419,-6.9478 3.11999,-2.4754 6.11424,-5.1054 8.97153,-7.8799 0.36722,-0.3891 0.73182,-0.7806 1.09378,-1.1746 -2.60204,-17.85957 -16.83236,-40.03755 -30.86307,-55.74238 4.76735,-8.84435 7.266,-18.7333 7.27207,-28.78069 -0.021,-2.8743 -0.24611,-5.74349 -0.6735,-8.58592 20.25731,9.18513 43.07704,26.53494 52.79848,47.36396 0.44067,-1.15171 0.86347,-2.31018 1.26827,-3.47499 1.17679,-3.80495 2.16256,-7.66636 2.95362,-11.56978 0.79154,-3.90311 1.38741,-7.84335 1.78537,-11.80598 0.39733,-3.96334 0.59619,-7.94408 0.59583,-11.92729 4.4e-4,-2.81936 -0.0989,-5.63784 -0.29791,-8.45017 -0.28228,-3.97319 -0.76309,-7.92978 -1.44064,-11.85493 -0.62776,-3.53416 -1.41449,-7.03823 -2.35779,-10.50154 -20.56165,-7.32804 -45.89823,-4.79548 -63.74906,-1.11372 -6.81835,-11.01918 -16.98234,-19.56874 -29.00647,-24.39915 18.07184,-12.93645 44.49019,-24.02091 67.37307,-22.03241 -1.38409,-1.66502 -2.8132,-3.2921 -4.28573,-4.87944 -2.77498,-2.85712 -5.6911,-5.57368 -8.73745,-8.13949 -3.04611,-2.56581 -6.21862,-4.97769 -9.50565,-7.22659 -3.28724,-2.24885 -6.68489,-4.3319 -10.18022,-6.24135 -3.49538,-1.90963 -7.08407,-3.64325 -10.75264,-5.19438 -3.66896,-1.55092 -7.41319,-2.91736 -11.21867,-4.09421 -1.42662,-0.39262 -2.86041,-0.75869 -4.30063,-1.09804 -14.14688,11.18369 -26.2293,34.57475 -32.8107,54.55552 -12.96018,0.38127 -25.4582,4.90015 -35.665394,12.89544 -2.15922,-22.12637 1.466931,-50.55807 14.646924,-69.38315 z" style="fill:url(#radialGradient6219)"/>
  </clipPath>
 </defs>
 <circle style="opacity:0.1;filter:url(#filter11210)" cx="128.752" cy="127.248" r="112"/>
 <circle style="opacity:0.1;filter:url(#filter11191)" cx="128.752" cy="125.248" r="112"/>
 <circle style="opacity:0.1" cx="128.752" cy="123.248" r="114"/>
 <circle style="fill:#2daaaa" cx="128.752" cy="123.106" r="112"/>
 <path style="fill:#ffffff" d="M 128.75195 71.646484 A 51.459421 51.459421 0 0 0 77.292969 123.10547 A 51.459421 51.459421 0 0 0 78.144531 132.1875 L 160.74805 132.1875 A 33.297268 33.297268 0 0 1 128.75195 156.40234 A 33.297268 33.297268 0 0 1 103.10547 144.29492 L 81.916016 144.29492 A 51.459421 51.459421 0 0 0 128.75195 174.56445 A 51.459421 51.459421 0 0 0 180.21094 123.10547 A 51.459421 51.459421 0 0 0 179.35938 114.02539 L 96.755859 114.02539 A 33.297268 33.297268 0 0 1 128.75195 89.808594 A 33.297268 33.297268 0 0 1 154.39844 101.91602 L 175.58789 101.91602 A 51.459421 51.459421 0 0 0 128.75195 71.646484 z"/>
 <path style="fill:#ffffff" d="M 137.83398 234.68555 L 137.83398 210.4043 A 87.783715 87.783715 0 0 0 215.21094 138.24023 L 196.6582 138.24023 A 69.621566 69.621566 0 0 1 128.75195 192.72656 A 69.621566 69.621566 0 0 1 60.892578 138.24023 L 42.375 138.24023 A 87.783715 87.783715 0 0 0 119.67188 210.38086 L 119.67188 234.65234 A 112 112 0 0 0 128.75195 235.10547 A 112 112 0 0 0 136.67383 234.82617 A 112 112 0 0 0 137.83398 234.68555 z"/>
 <path style="fill:#ffffff" d="M 128.75195 11.105469 A 112 112 0 0 0 120.83008 11.386719 A 112 112 0 0 0 119.67188 11.527344 L 119.67188 35.806641 A 87.783715 87.783715 0 0 0 42.292969 107.9707 L 60.845703 107.9707 A 69.621566 69.621566 0 0 1 128.75195 53.484375 A 69.621566 69.621566 0 0 1 196.61133 107.9707 L 215.12891 107.9707 A 87.783715 87.783715 0 0 0 137.83398 35.830078 L 137.83398 11.560547 A 112 112 0 0 0 128.75195 11.105469 z"/>
 <path style="opacity:0.2" d="m 128.752,235.248 a 112,112 0 0 1 -112.000001,-112 112,112 0 0 1 0.04102,-1.16992 A 112,112 0 0 0 128.752,233.248 112,112 0 0 0 240.71098,122.41792 a 112,112 0 0 1 0.041,0.83008 112,112 0 0 1 -112,112 z"/>
 <path style="opacity:0.3;fill:#ffffff" d="M 128.752,11.248006 A 112,112 0 0 0 16.751999,123.248 112,112 0 0 0 16.793019,124.41792 112,112 0 0 1 128.752,13.248006 112,112 0 0 1 240.71098,124.07808 a 112,112 0 0 0 0.041,-0.83008 112,112 0 0 0 -112,-111.999994 z"/>
 <path style="opacity:0.2" d="M 128.75195,51.484379 A 69.621566,69.621566 0 0 0 60.8457,105.97071 H 42.74023 a 87.783715,87.783715 0 0 0 -0.44726,2 H 60.8457 a 69.621566,69.621566 0 0 1 67.90625,-54.486331 69.621566,69.621566 0 0 1 67.85938,54.486331 h 18.51758 a 87.783715,87.783715 0 0 0 -0.45508,-2 h -18.0625 A 69.621566,69.621566 0 0 0 128.75195,51.484379 Z m 0,36.324219 A 33.297268,33.297268 0 0 0 96.75586,112.02539 h 0.67578 a 33.297268,33.297268 0 0 1 31.32031,-22.216792 33.297268,33.297268 0 0 1 25.64649,12.107422 h 21.18945 a 51.459421,51.459421 0 0 0 -1.02734,-2.000001 H 154.39844 A 33.297268,33.297268 0 0 0 128.75195,87.808598 Z M 77.33594,121.89063 a 51.459421,51.459421 0 0 0 -0.04297,1.21484 51.459421,51.459421 0 0 0 0.85156,9.08203 h 81.92773 a 33.297268,33.297268 0 0 0 0.67579,-2 H 78.14453 a 51.459421,51.459421 0 0 1 -0.80859,-8.29687 z m 102.83203,0.42969 a 51.459421,51.459421 0 0 1 -51.41602,50.24414 51.459421,51.459421 0 0 1 -45.80859,-28.26953 h -1.02734 a 51.459421,51.459421 0 0 0 46.83593,30.26953 51.459421,51.459421 0 0 0 51.45899,-51.45899 51.459421,51.459421 0 0 0 -0.043,-0.78515 z M 42.375,138.24024 a 87.783715,87.783715 0 0 0 77.29687,72.14062 v -2 A 87.783715,87.783715 0 0 1 42.83008,138.24024 Z m 172.38867,0 a 87.783715,87.783715 0 0 1 -76.92969,70.16406 v 2 a 87.783715,87.783715 0 0 0 77.37696,-72.16406 z m -95.0918,94.41211 v 2 a 112,112 0 0 0 9.08008,0.45312 112,112 0 0 0 7.92188,-0.27929 112,112 0 0 0 1.16015,-0.14063 v -2 a 112,112 0 0 1 -1.16015,0.14063 112,112 0 0 1 -7.92188,0.27929 112,112 0 0 1 -9.08008,-0.45312 z"/>
</svg>
